Sources/FrostedUI/Resources/Icons.xcassets/linkAdd24.imageset/link-add-24.svg

<svg width="24" height="24" viewBox="0 0 24 24" fill="none" xmlns="http://www.w3.org/2000/svg" data-fui-icon="true">
  <path
    d="M18.5 15C18.9142 15 19.25 15.3358 19.25 15.75V17.75H21.25C21.6642 17.75 22 18.0858 22 18.5C22 18.9142 21.6642 19.25 21.25 19.25H19.25V21.25C19.25 21.6642 18.9142 22 18.5 22C18.0858 22 17.75 21.6642 17.75 21.25V19.25H15.75C15.3358 19.25 15 18.9142 15 18.5C15 18.0858 15.3358 17.75 15.75 17.75H17.75V15.75C17.75 15.3358 18.0858 15 18.5 15ZM5.75098 9.43848C6.04387 9.14558 6.51863 9.14558 6.81152 9.43848C7.10442 9.73137 7.10442 10.2061 6.81152 10.499L4.17871 13.1328C3.42438 13.8872 3.00012 14.9098 3 15.9766C3 18.1984 4.80161 20 7.02344 20C8.09022 19.9999 9.11285 19.5756 9.86719 18.8213L12.501 16.1885C12.7939 15.8956 13.2686 15.8956 13.5615 16.1885C13.8544 16.4814 13.8544 16.9561 13.5615 17.249L10.9287 19.8828C9.89306 20.9184 8.48804 21.4999 7.02344 21.5C3.97319 21.5 1.5 19.0268 1.5 15.9766C1.50012 14.512 2.08155 13.1069 3.11719 12.0713L5.75098 9.43848ZM14.2197 7.71973C14.5126 7.42683 14.9874 7.42683 15.2803 7.71973C15.5732 8.01262 15.5732 8.48738 15.2803 8.78027L8.78027 15.2803C8.48738 15.5732 8.01262 15.5732 7.71973 15.2803C7.42683 14.9874 7.42683 14.5126 7.71973 14.2197L14.2197 7.71973ZM15.9766 1.5C19.0268 1.5 21.5 3.97318 21.5 7.02344C21.4999 8.48804 20.9184 9.89306 19.8828 10.9287L17.249 13.5615C16.9561 13.8544 16.4814 13.8544 16.1885 13.5615C15.8956 13.2686 15.8956 12.7939 16.1885 12.501L18.8213 9.86719C19.5756 9.11285 19.9999 8.09022 20 7.02344C20 4.80161 18.1984 3 15.9766 3C14.9098 3.00012 13.8872 3.42438 13.1328 4.17871L10.499 6.81152C10.2061 7.10442 9.73137 7.10442 9.43848 6.81152C9.14558 6.51863 9.14558 6.04387 9.43848 5.75098L12.0713 3.11719C13.1069 2.08155 14.512 1.50012 15.9766 1.5Z"
    fill="currentColor"
  />
</svg>

<svg xmlns="http://www.w3.org/2000/svg" width="24" height="24" fill="none" data-fui-icon="true" viewBox="0 0 24 24"><path fill="currentColor" d="M18.5 15a.75.75 0 0 1 .75.75v2h2a.75.75 0 0 1 0 1.5h-2v2a.75.75 0 0 1-1.5 0v-2h-2a.75.75 0 0 1 0-1.5h2v-2a.75.75 0 0 1 .75-.75M5.751 9.438a.75.75 0 1 1 1.06 1.061L4.18 13.133a4.023 4.023 0 1 0 5.688 5.688l2.634-2.633a.75.75 0 1 1 1.06 1.061l-2.632 2.634a5.524 5.524 0 0 1-7.812-7.812zM14.22 7.72a.75.75 0 1 1 1.06 1.06l-6.5 6.5a.75.75 0 1 1-1.06-1.06zm1.757-6.22a5.524 5.524 0 0 1 3.906 9.429l-2.634 2.633a.75.75 0 1 1-1.06-1.061l2.632-2.634a4.022 4.022 0 1 0-5.688-5.688l-2.634 2.633a.75.75 0 1 1-1.06-1.061l2.632-2.634A5.52 5.52 0 0 1 15.977 1.5"/></svg>
